static/assets/template/assets/img/svg/devices/phone-1.svg

<svg height="543" viewBox="0 0 285 543" width="285" xmlns="http://www.w3.org/2000/svg" xmlns:xlink="http://www.w3.org/1999/xlink"><defs><filter id="a" height="292.1%" width="186%" x="-43%" y="-63.7%"><feOffset dx="0" dy="28" in="SourceAlpha" result="shadowOffsetOuter1"/><feGaussianBlur in="shadowOffsetOuter1" result="shadowBlurOuter1" stdDeviation="23"/><feColorMatrix in="shadowBlurOuter1" result="shadowMatrixOuter1" type="matrix" values="0 0 0 0 0   0 0 0 0 0   0 0 0 0 0  0 0 0 0.177139946 0"/><feOffset dx="0" dy="13" in="SourceAlpha" result="shadowOffsetOuter2"/><feGaussianBlur in="shadowOffsetOuter2" result="shadowBlurOuter2" stdDeviation="14"/><feColorMatrix in="shadowBlurOuter2" result="shadowMatrixOuter2" type="matrix" values="0 0 0 0 0   0 0 0 0 0   0 0 0 0 0  0 0 0 0.0439594656 0"/><feMerge><feMergeNode in="shadowMatrixOuter1"/><feMergeNode in="shadowMatrixOuter2"/></feMerge></filter><path id="b" d="m215.161017 144.301471h.919865c.507615 0 .919118.411503.919118.919117v27.57353c0 .507614-.411503.919117-.919118.919117h-.919865v260.110294c0 16.24367-13.168096 29.411765-29.411765 29.411765h-154.4985042c-16.2436692 0-29.41176475-13.168095-29.41176475-29.411765v-234.375h-.9198654c-.50761466 0-.91911765-.411503-.91911765-.919117v-27.57353c0-.507614.41150299-.919117.91911765-.919117h.9198654v-26.654412h-.9198654c-.50761466 0-.91911765-.411503-.91911765-.919118v-62.4999997c0-.5076147.41150299-.9191177.91911765-.9191177h.9198654v-49.6323529c0-16.2436691 13.16809555-29.4117647 29.41176475-29.4117647h154.4985042c16.243669 0 29.411765 13.1680956 29.411765 29.4117647z"/><filter id="c" height="122%" width="147%" x="-23.5%" y="-7.1%"><feOffset dx="0" dy="18" in="SourceAlpha" result="shadowOffsetOuter1"/><feGaussianBlur in="shadowOffsetOuter1" result="shadowBlurOuter1" stdDeviation="14"/><feColorMatrix in="shadowBlurOuter1" type="matrix" values="0 0 0 0 0   0 0 0 0 0   0 0 0 0 0  0 0 0 0.03 0"/></filter><pattern id="d" height="100%" width="118.490879%" x="-18.490879%"><image height="1620" transform="scale(.25493827)" width="1080" xlink:href="assets/img/theme/light/img-1-201x413.png"/></pattern></defs><g fill="none" fill-rule="evenodd" transform="translate(34 10)"><path d="m11.95339 413.602941h193.09322v86.397059h-193.09322z" fill="#000" filter="url(#a)" opacity=".206352"/><use fill="#000" filter="url(#c)" xlink:href="#b"/><use fill="#fff" fill-rule="evenodd" xlink:href="#b"/><rect fill="url(#d)" height="413" rx="16.544118" width="201" x="8" y="26"/></g></svg>

<svg width="285px" height="543px" viewBox="0 0 285 543" version="1.1" xmlns="http://www.w3.org/2000/svg" xmlns:xlink="http://www.w3.org/1999/xlink">
    <defs>
        <rect id="path-1" x="11.9533898" y="413.602941" width="193.09322" height="86.3970588"></rect>
        <filter x="-43.0%" y="-63.7%" width="186.0%" height="292.1%" filterUnits="objectBoundingBox" id="filter-2">
            <feOffset dx="0" dy="28" in="SourceAlpha" result="shadowOffsetOuter1"></feOffset>
            <feGaussianBlur stdDeviation="23" in="shadowOffsetOuter1" result="shadowBlurOuter1"></feGaussianBlur>
            <feColorMatrix values="0 0 0 0 0   0 0 0 0 0   0 0 0 0 0  0 0 0 0.177139946 0" type="matrix" in="shadowBlurOuter1" result="shadowMatrixOuter1"></feColorMatrix>
            <feOffset dx="0" dy="13" in="SourceAlpha" result="shadowOffsetOuter2"></feOffset>
            <feGaussianBlur stdDeviation="14" in="shadowOffsetOuter2" result="shadowBlurOuter2"></feGaussianBlur>
            <feColorMatrix values="0 0 0 0 0   0 0 0 0 0   0 0 0 0 0  0 0 0 0.0439594656 0" type="matrix" in="shadowBlurOuter2" result="shadowMatrixOuter2"></feColorMatrix>
            <feMerge>
                <feMergeNode in="shadowMatrixOuter1"></feMergeNode>
                <feMergeNode in="shadowMatrixOuter2"></feMergeNode>
            </feMerge>
        </filter>
        <path d="M215.161017,144.301471 L216.080882,144.301471 C216.588497,144.301471 217,144.712974 217,145.220588 L217,172.794118 C217,173.301732 216.588497,173.713235 216.080882,173.713235 L215.161017,173.713235 L215.161017,433.823529 C215.161017,450.067199 201.992921,463.235294 185.749252,463.235294 L31.2507478,463.235294 C15.0070786,463.235294 1.83898305,450.067199 1.83898305,433.823529 L1.83898305,199.448529 L0.919117647,199.448529 C0.411502987,199.448529 1.73187169e-16,199.037026 1.11022302e-16,198.529412 L-1.11022302e-16,170.955882 C-1.73187169e-16,170.448268 0.411502987,170.036765 0.919117647,170.036765 L1.83898305,170.036765 L1.83898305,143.382353 L0.919117647,143.382353 C0.411502987,143.382353 4.00543245e-15,142.97085 1.11022302e-16,142.463235 L-1.11022302e-16,79.9632353 C-1.73187169e-16,79.4556206 0.411502987,79.0441176 0.919117647,79.0441176 L1.83898305,79.0441176 L1.83898305,29.4117647 C1.83898305,13.1680956 15.0070786,-1.12269411e-14 31.2507478,-1.42108547e-14 L185.749252,0 C201.992921,1.14433628e-14 215.161017,13.1680956 215.161017,29.4117647 L215.161017,144.301471 Z" id="path-3"></path>
        <filter x="-23.5%" y="-7.1%" width="147.0%" height="122.0%" filterUnits="objectBoundingBox" id="filter-4">
            <feOffset dx="0" dy="18" in="SourceAlpha" result="shadowOffsetOuter1"></feOffset>
            <feGaussianBlur stdDeviation="14" in="shadowOffsetOuter1" result="shadowBlurOuter1"></feGaussianBlur>
            <feColorMatrix values="0 0 0 0 0   0 0 0 0 0   0 0 0 0 0  0 0 0 0.03 0" type="matrix" in="shadowBlurOuter1"></feColorMatrix>
        </filter>
        <pattern id="pattern-5" patternUnits="objectBoundingBox" x="-18.4908789%" width="118.490879%" height="100%">
            <use xlink:href="#image-6" transform="scale(0.254938272,0.254938272)"></use>
        </pattern>
        <image id="image-6" width="1080" height="1620" xlink:href="assets/img/theme/light/img-1-201x413.png"></image>
    </defs>
    <g id="Ultimate-Designer-Mockup-Pack" stroke="none" stroke-width="1" fill="none" fill-rule="evenodd">
        <g id="Two-Galaxy-S8" transform="translate(-120.000000, -57.000000)">
            <g id="Galaxy-S8-Left" transform="translate(154.000000, 67.000000)">
                <g id="Shadow" opacity="0.206351902" fill="black" fill-opacity="1">
                    <use filter="url(#filter-2)" xlink:href="#path-1"></use>
                </g>
                <g id="Body">
                    <use fill="black" fill-opacity="1" filter="url(#filter-4)" xlink:href="#path-3"></use>
                    <use fill="#FFFFFF" fill-rule="evenodd" xlink:href="#path-3"></use>
                </g>
                <rect id="Screen" fill="url(#pattern-5)" x="8" y="26" width="201" height="413" rx="16.5441176"></rect>
            </g>
        </g>
    </g>
</svg>
